X: 38370
T: Standing Abbey, The
R: hornpipe
M: 4/4
K: Gmajor
|:u(3DEF|vG>vFuG>uB d>Bg>f|(3ege c>e d>BG>B|c>BA>c {B/c/}B>AG>B|A>GF>A d<cB<A|
G>FG>B d>Bg>f|(3ege c>e d>BG>B|c>BA>c (3BdB G>B|(3AcA F>A G2:|
|:(3ABc|d>^cd>f a>fd>f|a>bc'>b a>gf>e|d>ef>g a>bc'>b|a>gf>e d>cB>A|
G>FG>B d>Bg>f|(3ege c>e d>BG>B|c>BA>B (3BdB G>B|(3AcA F>A G2:|

